static/img/icon_smile.svg

<svg id="Layer_1" enable-background="new 0 0 512 512" height="512" viewBox="0 0 512 512" width="512" xmlns="http://www.w3.org/2000/svg"><path d="m256 512c-68.38 0-132.667-26.629-181.02-74.98-48.351-48.353-74.98-112.64-74.98-181.02s26.629-132.667 74.98-181.02c48.353-48.351 112.64-74.98 181.02-74.98s132.667 26.629 181.02 74.98c48.351 48.353 74.98 112.64 74.98 181.02s-26.629 132.667-74.98 181.02c-48.353 48.351-112.64 74.98-181.02 74.98zm0-472c-119.103 0-216 96.897-216 216s96.897 216 216 216 216-96.897 216-216-96.897-216-216-216zm93.737 260.188c-9.319-5.931-21.681-3.184-27.61 6.136-.247.387-25.137 38.737-67.127 38.737s-66.88-38.35-67.127-38.737c-5.93-9.319-18.291-12.066-27.61-6.136s-12.066 18.292-6.136 27.61c1.488 2.338 37.172 57.263 100.873 57.263s99.385-54.924 100.873-57.263c5.93-9.319 3.183-21.68-6.136-27.61zm-181.737-135.188c13.807 0 25 11.193 25 25s-11.193 25-25 25-25-11.193-25-25 11.193-25 25-25zm150 25c0 13.807 11.193 25 25 25s25-11.193 25-25-11.193-25-25-25-25 11.193-25 25z"/></svg>

<svg xmlns="http://www.w3.org/2000/svg" height="512" width="512"  xmlns:v="https://vecta.io/nano"><path d="M256 512c-68.38 0-132.667-26.629-181.02-74.98S0 324.38 0 256 26.629 123.333 74.98 74.98 187.62 0 256 0s132.667 26.629 181.02 74.98S512 187.62 512 256s-26.629 132.667-74.98 181.02S324.38 512 256 512zm0-472C136.897 40 40 136.897 40 256s96.897 216 216 216 216-96.897 216-216S375.103 40 256 40zm93.737 260.188a20 20 0 0 0-27.61 6.136c-.247.387-25.137 38.737-67.127 38.737s-66.88-38.35-67.127-38.737c-5.93-9.319-18.291-12.066-27.61-6.136s-12.066 18.292-6.136 27.61c1.488 2.338 37.172 57.263 100.873 57.263s99.385-54.924 100.873-57.263c5.93-9.319 3.183-21.68-6.136-27.61zM168 165c13.807 0 25 11.193 25 25s-11.193 25-25 25-25-11.193-25-25 11.193-25 25-25zm150 25c0 13.807 11.193 25 25 25s25-11.193 25-25-11.193-25-25-25-25 11.193-25 25z"/></svg>
